X:1
T:Title
L:1/8
Q:1/4=120
M:3/4
K:G
V:1 treble nm="Midi_1"
V:1
 G2 | E2 C2 A2 |"^Descant to St Denio AMNS 199" F2 D2 (GB) | d2 d2 c2 |"^Andrew Sims" B4 G2 | %5
w: Great|Fa- ther of|glo- ry, pure *|Fa- ther of|light, thine|
 E2 C2 A2 | F2 D2 (GA) | B2 B2 c2 | d4 (Bc) | d2 d2 (ef) | g2 d2 (Bc) | d2 d2 g2 | e4 ^d2 | %13
w: an- gels a-|dore thee, all *|veil- ing their|sight; all *|laud we would *|ren- der: O *|help us to|see 'tis|
 e2 !courtesy!=d2 ^c2 | d2 A2 (GA) | %15
w: on- ly the|splend- our of *|
 (Bc)"^Set to harmony by Noel Rawsthorne,\n1 February 2016" (de) f2 | g4 |] %17
w: light * hi * deth|thee.|

